static/logo.svg

<svg fill="none" height="41.999992" viewBox="0 0 80 41.99999237" width="80" xmlns="http://www.w3.org/2000/svg"><path d="m8.31723 16.6007c2.26757.0648 4.45667-.8353 6.02557-2.4775l.221-.2216-.221-.2215-2.5068-2.4542-.221-.2099-.2152.2157c-.825.7951-1.93914 1.2164-3.08257 1.1659-2.74527 0-3.9725-2.0637-3.9725-4.08069 0-2.44843 1.65765-4.16232 4.03067-4.16232 1.04388.01594 2.0464.41165 2.8209 1.11345l.2268.20404.2036-.21569 2.3555-2.48341.2094-.22153-.2152-.21569c-1.4671-1.552339-3.5269-2.4010867-5.65917-2.33182895-5.05432 0-8.31723 3.26456895-8.31723 8.30714895 0 5.04262 3.26291 8.28962 8.31723 8.28962zm14.93607 0h.0873c1.7648-.0215 3.4448-.7624 4.653-2.052l.1105 1.3059v.2856h4.1063v-15.739846h-4.1761v.291479l-.0698 1.218377c-1.1864-1.233713-2.8333-1.91426884-4.5425-1.8771213h-.0814c-4.9148 0-8.0904 3.2237513-8.0904 8.2138713 0 5.15914 3.0651 8.35374 8.0031 8.35374zm.5002-12.59184c1.168-.04191 2.2932.44382 3.0652 1.32331.6816.82925 1.0447 1.87556 1.0236 2.94976 0 2.05197-1.2795 4.26727-4.0713 4.26727-2.4836 0-4.1528-1.7197-4.1528-4.28475 0-2.56501 1.6518-4.25559 4.1353-4.25559zm29.1278-3.806738c-1.9743-.1044123-3.8628.818878-4.9961 2.442588-.8666-1.62062-2.4487-2.500888-4.5076-2.500888-1.4337-.0774596-2.8254.498951-3.7864 1.568158l-.157-1.060987-.0408-.262338h-4.0306v15.739845h4.3505v-8.39458c0-1.74887.9946-3.49774 2.9082-3.49774 1.9135 0 2.7801 1.74887 2.7801 3.49774v8.39458h4.3448v-8.39458c0-2.2502 1.4947-3.42779 2.9662-3.42779 2.2858 0 2.5301 2.33183 2.5301 3.36366v8.45871h4.3506v-8.44704c-.0117-4.82105-2.3905-7.479338-6.712-7.479338zm14.5231 14.737178c1.2156 1.1659 3.1466 1.5973 4.7053 1.5973 2.1913.071 4.3082-.801 5.8163-2.3959 1.392-1.6161 2.1306-3.6955 2.0706-5.82961 0-4.75694-3.3793-8.2138743-8.0381-8.2138743-1.7513-.0042344-3.4298.7023503-4.653 1.9587243l-.157-1.346626-.0349-.27399h-4.0714v18.940276h4.3448zm4.304-10.59234c2.2239-.10752 4.0627 1.71664 3.9783 3.94664.0863 2.2571-1.716 4.1339-3.9695 4.1339-2.2536 0-4.0559-1.8768-3.9696-4.1339-.1051-2.2356 1.7302-4.07779 3.9608-3.97578zm-41.2604 21.27794c-4.6995 0-8.102 3.4394-8.102 8.1614 0 4.7219 3.3443 8.1614 8.1427 8.1614s8.1428-3.3695 8.1428-8.1614-3.4374-8.1614-8.1835-8.1614zm0 12.3179c-1.8844 0-3.7863-1.2767-3.7863-4.1332s1.96-4.1623 3.7863-4.1623c2.373 0 3.7864 2.1161 3.7864 4.1623.0291 2.8565-1.8728 4.1332-3.7573 4.1332zm20.6012-12.3179c-4.6938 0-8.1021 3.4394-8.1021 8.1614 0 4.7219 3.3444 8.1614 8.1428 8.1614s8.1427-3.3695 8.1427-8.1614-3.4374-8.1614-8.1834-8.1614zm.029 12.3179c-1.8844 0-3.7863-1.2767-3.7863-4.1332s1.9659-4.1623 3.7863-4.1623c2.3731 0 3.7864 2.1161 3.7864 4.1623 0 2.8565-1.9019 4.1332-3.7864 4.1332zm-41.20222-12.3762c-1.71726.0387-3.36548.6851-4.65299 1.8247v-4.1098h-4.350553v18.3748h4.071383l.02905-.274.15704-1.3117c1.19306 1.2962 2.89514 2 4.65299 1.9238 4.8275 0 8.0729-3.3054 8.0729-8.2139.0001-5.0717-3.0593-8.2139-7.97982-8.2139zm-.33734 12.3413c-2.26783 0-4.10627-1.8427-4.10627-4.1157s1.83844-4.1157 4.10627-4.1157c2.32646 0 3.97246 1.6848 3.97246 4.0807.1323 2.2782-1.6959 4.1884-3.97246 4.1507zm61.36716-4.5646 3.6235-4.0632.4304-.4839 1.9834-2.221.57-.6471h-.57-4.9148l-.093.1107-4.5309 5.4157v-8.173h-4.3447v18.06.3148h.3083 3.7282.3082v-.3148-5.9986l3.4141 3.9582 2.0357 2.3552h.1396 4.496.3082.6457l-2.3963-2.6408z" fill="#231815"/></svg>

<svg xmlns="http://www.w3.org/2000/svg" xmlns:xlink="http://www.w3.org/1999/xlink" fill="none" version="1.1" width="80" height="41.99999237060547" viewBox="0 0 80 41.99999237060547"><g><path d="M8.31723,16.6007C10.5848,16.6655,12.7739,15.7654,14.3428,14.1232L14.5638,13.9016L14.3428,13.6801L11.836,11.2259L11.615,11.016L11.3998,11.2317C10.5748,12.0268,9.46066,12.4481,8.31723,12.3976C5.57196,12.3976,4.34473,10.3339,4.34473,8.31691C4.34473,5.86848,6.00238,4.15459,8.3754,4.15459C9.41928,4.17053,10.4218,4.56624,11.1963,5.26804L11.4231,5.47208L11.6267,5.25639L13.9822,2.77298L14.1916,2.55145L13.9764,2.33576C12.5093,0.783421,10.4495,-0.0653267,8.31723,0.00393105C3.26291,0.00393105,0,3.2685,0,8.31108C0,13.3537,3.26291,16.6007,8.31723,16.6007ZM23.2533,16.6007L23.3406,16.6007C25.1054,16.5792,26.7854,15.8383,27.9936,14.5487L28.1041,15.8546L28.1041,16.1402L32.2104,16.1402L32.2104,0.400354L28.0343,0.400354L28.0343,0.691833L27.9645,1.91021C26.7781,0.676497,25.1312,-0.00405884,23.422,0.0330887L23.3406,0.0330887C18.4258,0.0330887,15.2502,3.25684,15.2502,8.24696C15.2502,13.4061,18.3153,16.6007,23.2533,16.6007ZM23.7535,4.00886C24.9215,3.96695,26.0467,4.45268,26.8187,5.33217C27.5003,6.16142,27.8634,7.20773,27.8423,8.28193C27.8423,10.3339,26.5628,12.5492,23.771,12.5492C21.2874,12.5492,19.6182,10.8295,19.6182,8.26445C19.6182,5.69944,21.27,4.00886,23.7535,4.00886ZM52.8813,0.202122C50.907,0.0977097,49.0185,1.021,47.8852,2.64471C47.0186,1.02409,45.4365,0.143822,43.3776,0.143822C41.9439,0.0663624,40.5522,0.642773,39.5912,1.71198L39.4342,0.650993L39.3934,0.388655L35.3628,0.388655L35.3628,16.1285L39.7133,16.1285L39.7133,7.73392C39.7133,5.98505,40.7079,4.23618,42.6215,4.23618C44.535,4.23618,45.4016,5.98505,45.4016,7.73392L45.4016,16.1285L49.7464,16.1285L49.7464,7.73392C49.7464,5.48372,51.2411,4.30613,52.7126,4.30613C54.9984,4.30613,55.2427,6.63796,55.2427,7.66979L55.2427,16.1285L59.5933,16.1285L59.5933,7.68146C59.5816,2.86041,57.2028,0.202122,52.8813,0.202122ZM67.4044,14.9393C68.62,16.1052,70.551,16.5366,72.1097,16.5366C74.301,16.6076,76.4179,15.7356,77.926,14.1407C79.318,12.5246,80.0566,10.4452,79.9966,8.31109C79.9966,3.55415,76.6173,0.0972157,71.9585,0.0972157C70.2072,0.0929813,68.5287,0.799566,67.3055,2.05594L67.1485,0.709314L67.1136,0.435324L63.0422,0.435324L63.0422,19.3756L67.387,19.3756L67.4044,14.9393ZM71.7084,4.34696C73.9323,4.23944,75.7711,6.0636,75.6867,8.2936C75.773,10.5507,73.9707,12.4275,71.7172,12.4275C69.4636,12.4275,67.6613,10.5507,67.7476,8.2936C67.6425,6.058,69.4778,4.21581,71.7084,4.31782L71.7084,4.34696ZM30.448,25.6249C25.7485,25.6249,22.346,29.0643,22.346,33.7863C22.346,38.5082,25.6903,41.9477,30.4887,41.9477C35.2871,41.9477,38.6315,38.5782,38.6315,33.7863C38.6315,28.9944,35.1941,25.6249,30.448,25.6249ZM30.448,37.9428C28.5636,37.9428,26.6617,36.6661,26.6617,33.8096C26.6617,30.9531,28.6217,29.6473,30.448,29.6473C32.821,29.6473,34.2344,31.7634,34.2344,33.8096C34.2635,36.6661,32.3616,37.9428,30.4771,37.9428L30.448,37.9428ZM51.0492,25.6249C46.3554,25.6249,42.9471,29.0643,42.9471,33.7863C42.9471,38.5082,46.2915,41.9477,51.0899,41.9477C55.8883,41.9477,59.2326,38.5782,59.2326,33.7863C59.2326,28.9944,55.7952,25.6249,51.0492,25.6249ZM51.0782,37.9428C49.1938,37.9428,47.2919,36.6661,47.2919,33.8096C47.2919,30.9531,49.2578,29.6473,51.0782,29.6473C53.4513,29.6473,54.8646,31.7634,54.8646,33.8096C54.8646,36.6661,52.9627,37.9428,51.0782,37.9428ZM9.87598,25.5666C8.15872,25.6053,6.5105,26.2517,5.22299,27.3913L5.22299,23.2815L0.872437,23.2815L0.872437,41.6563L4.94382,41.6563L4.97287,41.3823L5.12991,40.0706C6.32297,41.3668,8.02505,42.0706,9.7829,41.9944C14.6104,41.9944,17.8558,38.689,17.8558,33.7805C17.8559,28.7088,14.7965,25.5666,9.87598,25.5666ZM9.53864,37.9079C7.27081,37.9079,5.43237,36.0652,5.43237,33.7922C5.43237,31.5192,7.27081,29.6765,9.53864,29.6765C11.8651,29.6765,13.5111,31.3613,13.5111,33.7572C13.6434,36.0354,11.8152,37.9456,9.53864,37.9079ZM70.9058,33.3433L74.5293,29.2801L74.9597,28.7962L76.9431,26.5752L77.5131,25.9281L76.9431,25.9281L72.0283,25.9281L71.9353,26.0388L67.4044,31.4545L67.4044,23.2815L63.0597,23.2815L63.0597,41.3415L63.0597,41.6563L63.368,41.6563L67.0962,41.6563L67.4044,41.6563L67.4044,41.3415L67.4044,35.3429L70.8185,39.3011L72.8542,41.6563L72.9938,41.6563L77.4898,41.6563L77.798,41.6563L78.4437,41.6563L76.0474,39.0155L70.9058,33.3433Z" fill="#231815" fill-opacity="1"/></g></svg>
